X: 22
T:Ships are Sailing, The
M:C|
L:1/8
R:reel
K:EDor
"em"Beed BcdB|"D"AD (3FED AD (3FED|"em"EDEF GFGA|Beef gfed|
Beed BcdB|"D"AD (3FED AD (3FED|"em"EDEF GFGA|1Beed e3 d:|2Beed e2 ef||
|:"em"gfga bgeg|"D"fefg afdf|"em"gfga bgeg|"D"fedf "em"edef|
"em"gfga bgeg|"D"fefg afdf|"em(G)"g2bg "D"f2af|1"em(C)"edef gfef:|2"em"e
def edBA||
